X:23
T:The Mortal Coil
C:Corwin Zekley
L:1/8
M:4/4
K:Dmin
"Dm" D2 AD"C" C2 GC |"Bb" B,CDE FGAB |"F" c2 F4 c2 |"G" =BcdB G2 FE |$"Dm" D2 AD"C" C2 GC | %5
"Bb" B,CDE FGAB |"Am" c2 EG Aceg |1"C" fedc"Dm" d4 :|2"C" fedc"Dm" defg ||$"Bb" a2 AB df a2 | %10
 ABda gfed |"C" c2 ec cfcc | gcca cc g2 |$"Bb" a2 AB df a2 | ABda gfed |1"Am" c2 EG Aceg | %16
"C" fedc"Dm" defg :|2$"Am" cAgf edcA ||"C" Gfed cAGF |] %19

